data/styles/clear/style-clear/symbols/volcano-l.svg

<svg height="27" viewBox="0 0 27 27" width="27"><path d="m13.4999998 11.1570941c.597816 0 1.8358541-.55952 1.8358541-.55952l4.5786198 7.3711759c.0603131.1060812.0855263.2250875.0855263.34375 0 .515625-.3421053.6876375-.6842105.6875h-11.63157897c-.34210527.0001375-.68421053-.171875-.68421053-.6875 0-.1186625.02524737-.2376688.08552632-.34375l4.66572738-7.3711759s1.1516953.55952 1.7487461.55952zm.8652164-2.30604804c-.5199765.2535226-.9508695.71195417-1.3430305 1.14895394-.0731066-.49345428.042121-1.04388581.23336-1.49343103.213994-.50704518.570328-.9508404 1.0273651-1.21481753.8937398-.51645428 1.9738772-.29481803 2.8080667.2556135.2556309.16988627.5064203.34918163.7785123.48822701.3771524.19131808.7838379.30422711 1.2026272.27913622.6889446-.04129544 1.3522293-.40772706 1.927883-.79454504-.0411527.50599973-.3016251 1.01095401-.5988928 1.39254472-.3481035.44693158-.809982.77729504-1.3299585.93881768-.5558036.17197717-1.1508232.14845447-1.7017853-.02979544-.4459016-.14479537-.8380626-.39047706-1.2297395-.65602238-.2556309-.17354536-.5320803-.329318-.825959-.41138614-.3268008-.0909545-.6434346-.05279543-.9484487.09670449z" fill="#262622" fill-rule="evenodd"/></svg>

<svg width="27" height="27" viewBox="0 0 27 27">
  <path fill="#262622" fill-rule="evenodd" d="M13.4999998,11.1570941 C14.0978158,11.1570941 15.3358539,10.5975741 15.3358539,10.5975741 L19.9144737,17.96875 C19.9747868,18.0748312 20,18.1938375 20,18.3125 C20,18.828125 19.6578947,19.0001375 19.3157895,19 L7.68421053,19 C7.34210526,19.0001375 7,18.828125 7,18.3125 C7,18.1938375 7.02524737,18.0748312 7.08552632,17.96875 L11.7512537,10.5975741 C11.7512537,10.5975741 12.902949,11.1570941 13.4999998,11.1570941 Z M14.3652162,8.85104606 C13.8452397,9.10456866 13.4143467,9.56300023 13.0221857,10 C12.9490791,9.50654572 13.0643067,8.95611419 13.2555457,8.50656897 C13.4695397,7.99952379 13.8258737,7.55572857 14.2829108,7.29175144 C15.1766506,6.77529716 16.256788,6.99693341 17.0909775,7.54736494 C17.3466084,7.71725121 17.5973978,7.89654657 17.8694898,8.03559195 C18.2466422,8.22691003 18.6533277,8.33981906 19.072117,8.31472817 C19.7610616,8.27343273 20.4243463,7.90700111 21,7.52018313 C20.9588473,8.02618286 20.6983749,8.53113714 20.4011072,8.91272785 C20.0530037,9.35965943 19.5911252,9.69002289 19.0711487,9.85154553 C18.5153451,10.0235227 17.9203255,10 17.3693634,9.82175009 C16.9234618,9.67695472 16.5313008,9.43127303 16.1396239,9.16572771 C15.883993,8.99218235 15.6075436,8.83640971 15.3136649,8.75434157 C14.9868641,8.66338707 14.6702303,8.70154614 14.3652162,8.85104606 Z"/>
</svg>
